assets/icons/emote/tired-filled.svg

<?xml version="1.0" encoding="UTF-8" standalone="no"?>
<svg
   viewBox="0 0 24 24"
   width="24"
   height="24"
   version="1.1"
   id="svg836"
   sodipodi:docname="tired-filled.svg"
   inkscape:version="1.2 (1:1.2.1+202207142221+cd75a1ee6d)"
   xmlns:inkscape="http://www.inkscape.org/namespaces/inkscape"
   xmlns:sodipodi="http://sodipodi.sourceforge.net/DTD/sodipodi-0.dtd"
   xmlns="http://www.w3.org/2000/svg"
   xmlns:svg="http://www.w3.org/2000/svg"
   xmlns:rdf="http://www.w3.org/1999/02/22-rdf-syntax-ns#"
   xmlns:cc="http://creativecommons.org/ns#"
   xmlns:dc="http://purl.org/dc/elements/1.1/">
  <metadata
     id="metadata842">
    <rdf:RDF>
      <cc:Work
         rdf:about="">
        <dc:format>image/svg+xml</dc:format>
        <dc:type
           rdf:resource="http://purl.org/dc/dcmitype/StillImage" />
      </cc:Work>
    </rdf:RDF>
  </metadata>
  <defs
     id="defs840" />
  <sodipodi:namedview
     pagecolor="#ffffff"
     bordercolor="#666666"
     borderopacity="1"
     objecttolerance="10"
     gridtolerance="10"
     guidetolerance="10"
     inkscape:pageopacity="0"
     inkscape:pageshadow="2"
     inkscape:window-width="1920"
     inkscape:window-height="1016"
     id="namedview838"
     showgrid="true"
     inkscape:zoom="27.5"
     inkscape:cx="6.9818182"
     inkscape:cy="6.3454545"
     inkscape:window-x="0"
     inkscape:window-y="0"
     inkscape:window-maximized="1"
     inkscape:current-layer="svg836"
     inkscape:pagecheckerboard="0"
     inkscape:showpageshadow="2"
     inkscape:deskcolor="#d1d1d1">
    <inkscape:grid
       type="xygrid"
       id="grid1437" />
    <inkscape:grid
       type="xygrid"
       id="grid1439"
       dotted="true"
       spacingx="0.5"
       spacingy="0.5"
       empspacing="10" />
  </sodipodi:namedview>
  <path
     id="path993"
     style="fill:#808080;fill-opacity:1;fill-rule:evenodd;stroke:none;stroke-width:0.75;stroke-linecap:square;stroke-linejoin:round;stroke-opacity:1"
     d="M 11.953125 2.625 A 9.375 9.375 0 0 0 2.625 12 A 9.375 9.375 0 0 0 12 21.375 A 9.375 9.375 0 0 0 21.375 12 A 9.375 9.375 0 0 0 12 2.625 A 9.375 9.375 0 0 0 11.953125 2.625 z M 10.757812 10.28125 A 0.46875 0.46875 0 0 1 11.195312 10.601562 A 0.46875 0.46875 0 0 1 10.898438 11.195312 L 7.1484375 12.445312 A 0.46875 0.46875 0 0 1 6.5546875 12.148438 A 0.46875 0.46875 0 0 1 6.8515625 11.556641 L 10.601562 10.306641 A 0.46875 0.46875 0 0 1 10.757812 10.28125 z M 13.271484 10.28125 A 0.46875 0.46875 0 0 1 13.398438 10.306641 L 17.148438 11.556641 A 0.46875 0.46875 0 0 1 17.445312 12.148438 A 0.46875 0.46875 0 0 1 16.851562 12.445312 L 13.101562 11.195312 A 0.46875 0.46875 0 0 1 12.804688 10.601562 A 0.46875 0.46875 0 0 1 13.271484 10.28125 z M 8.25 15.125 L 15.75 15.125 C 16.09625 15.125 16.375 15.40375 16.375 15.75 C 16.375 16.09625 16.09625 16.375 15.75 16.375 L 8.25 16.375 C 7.9037505 16.375 7.625 16.09625 7.625 15.75 C 7.625 15.40375 7.9037505 15.125 8.25 15.125 z " />
</svg>

<svg width="24" height="24" xmlns="http://www.w3.org/2000/svg"><path style="fill:gray;fill-opacity:1;stroke:none;stroke-width:.75;stroke-linecap:square;stroke-linejoin:round;stroke-opacity:1" d="M11.953 2.625A9.375 9.375 0 0 0 2.625 12 9.375 9.375 0 0 0 12 21.375 9.375 9.375 0 0 0 21.375 12 9.375 9.375 0 0 0 12 2.625a9.375 9.375 0 0 0-.047 0zm-1.195 7.656a.469.469 0 0 1 .437.32.469.469 0 0 1-.297.594l-3.75 1.25a.469.469 0 0 1-.593-.297.469.469 0 0 1 .297-.591l3.75-1.25a.469.469 0 0 1 .156-.026zm2.513 0a.469.469 0 0 1 .127.026l3.75 1.25a.469.469 0 0 1 .297.591.469.469 0 0 1-.593.297l-3.75-1.25a.469.469 0 0 1-.297-.593.469.469 0 0 1 .466-.32zM8.25 15.125h7.5c.346 0 .625.279.625.625a.624.624 0 0 1-.625.625h-7.5a.624.624 0 0 1-.625-.625c0-.346.279-.625.625-.625z"/></svg>
